X:1
T:Uriar, My Son
M:2/4
L:1/4
K:C
 G| B G/2G/2| B c| d B/2A/2| G G| A A/2G/2| A G| B A/2A/2| d G| B G/2G/2|\
 B c| d B/2A/2| G d/2c/2| d c/2c/4-d/4| e B/2 B/4B/4| c B/2A/2| G||\
